X: 2004
Q: "Reel."
M: C
L: 1/8
K: A
uE2 |\
vA2(AB) cBcd | e2(af) ecAc |\
dcdf ecBA | GABc B3uc |\
vdcde fgaf | ecBA AGFE |\
(uaf) |\
vecAc e2(af) | ecAc e2c2 |\
dcde fgaf | g2e2 e2(dc) |\
dcde fgaf | ecBA AGFE |\


